src/copy-action.svg

<svg width="24" height="24" viewBox="0 0 24 24" xmlns="http://www.w3.org/2000/svg" xmlns:xlink="http://www.w3.org/1999/xlink">
  <path d="M13.82 3C13.4 1.84 12.3 1 11 1c-1.3 0-2.4.84-2.82 2H4c-1.1 0-2 .9-2 2v16c0 1.1.9 2 2 2h14c1.1 0 2-.9 2-2V5c0-1.1-.9-2-2-2h-4.18zM9 13H6v2h3v-2zm-3 6h5v-2H6v2zM6 9v2h6V9H6zm5-6c.55 0 1 .45 1 1s-.45 1-1 1-1-.45-1-1 .45-1 1-1zm9.003 10H23v2h-2.997v2H18v4H4V5h2v1.007h10V5h2v5.992h2.003V13zm0 0H15.99v-3L12 14l3.99 4v-3h4.013v-2z" fill="currentColor"/>
</svg>

<svg width="24" height="24" viewBox="0 0 24 24" xmlns="http://www.w3.org/2000/svg">
<path fill-rule="evenodd" clip-rule="evenodd" d="M13.82 3C13.4 1.84 12.3 1 11 1C9.7 1 8.6 1.84 8.18 3H4C2.9 3 2 3.9 2 5V21C2 22.1 2.9 23 4 23H18C19.1 23 20 22.1 20 21C20 21 20 14.9801 20 11.9702C20 11.6528 20 11.3353 20 11.0179C20 9.01194 20 5 20 5C20 3.9 19.1 3 18 3H13.82ZM9 13H6V15H9V13ZM6 19H11V17H6V19ZM6 9V11H12V9H6ZM11 3C11.55 3 12 3.45 12 4C12 4.55 11.55 5 11 5C10.45 5 10 4.55 10 4C10 3.45 10.45 3 11 3ZM4 21V5H6V6.00659H16V5H18V10.9917H20.0027V17.0004H18V21H4ZM15.99 18V15H23V13H15.99V10L12 14L15.99 18Z" fill="currentColor"/>
</svg>
